src/pos-icons/bookmark-off.svg

<svg height="24" viewBox="0 0 24 24" width="24" xmlns="http://www.w3.org/2000/svg"><path d="m20 20.72-1.27 1.28-1.95-1.95-4.78-2.05-7 3v-12.73l-3-3 1.28-1.27zm-1-3.56v-12.16c0-1.11-.9-2-2-2h-10c-.59 0-1.11.27-1.5.68z"/></svg>

<?xml version="1.0" encoding="UTF-8"?><!DOCTYPE svg PUBLIC "-//W3C//DTD SVG 1.1//EN" "http://www.w3.org/Graphics/SVG/1.1/DTD/svg11.dtd"><svg xmlns="http://www.w3.org/2000/svg" xmlns:xlink="http://www.w3.org/1999/xlink" version="1.1" id="mdi-bookmark-off" width="24" height="24" viewBox="0 0 24 24"><path d="M20,20.72L18.73,22L16.78,20.05L12,18L5,21V8.27L2,5.27L3.28,4L20,20.72M19,17.16V5C19,3.89 18.1,3 17,3H7C6.41,3 5.89,3.27 5.5,3.68L19,17.16Z" /></svg>
